X:353
T:Rosin the Beau
M:6/8
L:1/8
K:G
G2 G BGB | d2 d efg | dBG GAG | E3 E2 D |
G2 G BGB | d2 d efg | dBG ABA|1 G3- G2 D :|2 G4 Bc ||
d2 d dBd | e2 f gfe | dBG GAG | E3- E2 D |
G2 G BGB | d2 d efg | dBG ABA | G4 Bc :||
